X: 1
T:Cherokee Shuffle
S:An amalgam
M:4/4
L:1/8
K:D
A,2 B,2 C2 | D2 DF EDB,A, | DEDB, A,2 A,B, | D2 DE F2 A2 | B2 BB B2 Bc | 
d2 d2 d2 B2 | ABAG FEDE | FEDE F2 A2 | B2 BB B2 dB | ABAG F2 E2 | D2 :|
|:\
d2 c2 =c2 | BABc d2 B2 | ABAG F2 dc | BABc d2 e2 | f2 ff f2 dc | BABc d2 B2 | 
ABAG FEDE | FEDE F2 A2 | B2 BB B2 dB | ABAG F2 E2 | D2 :|] 
